X:1
T:Title
%%score ( 1 2 ) { 3 | 4 }
L:1/8
Q:1/4=103
M:4/4
K:G
V:1 treble nm="Grand Piano, Soprano"
V:2 treble 
V:3 bass nm="Choir Pad, Burmah"
V:4 bass 
V:1
 [B,D]2 [B,D]2 [B,G]>[CA] [DB]2 | [DB]2 [Ec]2 [Ec]2 [DB]2 | [DB]>[Dc] [DB]2 [DA]2 [CE]2 | %3
w: By~Mary~Bridges~Canedy~Slade * * * *|||
 [CF]>[CF] [B,A]2 [B,G]2 [B,D]2 | [B,D]2 [B,D]2 [B,G]>[CA] [DB]2 | [DB]2 [Ec]2 [Ec]2 [DB]2 | %6
w: |||
 [DB]>[DB] [DB][DA] [DA]2 [DA]2 | [Dd]>[Dd] [Fd]2 [E^c]2 [Fd]2- | [Fd]2 [FA]2 [FA]2 [FA]2- | %9
w: |||
 [FA]2 [GB]2 G2 [FA]2- | [FA]2 [GB]2 [GB][GB][Fc][Fc] | [Fc]2 [GB]2 [GB]2 [FA]2- | %12
w: |||
 [FA]2 [DB]2 [DB]2 [DB]2- | [DB]2 [Ec]2 [Ec]2 [DB]2- | [DB]2 [Dd]2 [DA][DB][Dc][Dc] | EF [B,G]6- | %16
w: ||||
 [B,G]2 z2 z4 |] %17
w: |
V:2
 x8 | x8 | x8 | x8 | x8 | x8 | x8 | x8 | x8 | x8 | x8 | x8 | x8 | x8 | x8 | C2 z2 z4 | x8 |] %17
V:3
 G,2 G,2 G,>G, G,2 | G,2 G,2 G,2 G,2 | G,>G, F,2 F,2 F,2 | A,>A, G,2 G,2 G,2 | G,2 G,2 G,>G, G,2 | %5
 G,2 G,2 G,2 G,2 | G,>G, F,F, F,2 F,2 | A,>A, A,2 A,2 A,2- | A,2[K:treble] D2 D2 D2- | %9
 D2 D2 D2 D2- | D2 D2 DDDD | D2 D2 D2 D2- | D2[K:bass] G,2 G,2 G,2- | G,2 G,2 G,2 G,2- | %14
 G,2 F,2 F,G,A,A, | A,2 G,6- | G,2 z2 z4 |] %17
V:4
 z8 | z8 | z2 D,2 D,2 D,2 | D,>D, G,,2 G,,2 G,,2 | G,,2 G,,2 z4 | z8 | z2 D,D, D,2 D,2 | %7
 F,>F, z2 A,,2 D,2- | D,2 D,2 D,2 D,2- | D,2 G,2 B,,2 D,2- | D,2 G,2 G,G,A,A, | A,2 G,2 G,2 D,2- | %12
 D,2 z2 z4 | z8 | z2 D,2 D,D,D,D, | D,2 G,,6- | G,,2 z2 z4 |] %17

